flat-rounded/visa.svg

<svg xmlns="http://www.w3.org/2000/svg" fill="none" viewBox="0 0 780 500"><g clip-path="url(#a)"><path fill="#1434CB" d="M40 0h700c22.092 0 40 17.909 40 40v420c0 22.092-17.908 40-40 40H40c-22.091 0-40-17.908-40-40V40C0 17.909 17.909 0 40 0Z"/><path fill="#fff" d="M489.823 143.111c-46.835 0-88.689 24.282-88.689 69.145 0 51.45 74.23 55.003 74.23 80.85 0 10.883-12.469 20.625-33.764 20.625-30.223 0-52.811-13.612-52.811-13.612l-9.666 45.272s26.022 11.498 60.569 11.498c51.206 0 91.498-25.474 91.498-71.105 0-54.365-74.538-57.813-74.538-81.803 0-8.526 10.235-17.867 31.47-17.867 23.959 0 43.506 9.9 43.506 9.9l9.459-43.725s-21.269-9.178-51.264-9.178Zm-428.4936 3.3-1.1341 6.6s19.7035 3.607 37.4497 10.803c22.85 8.25 24.477 13.054 28.326 27.972l41.934 161.7h56.213l86.601-207.075h-56.084l-55.646 140.791-22.707-119.341c-2.083-13.658-12.631-21.45-25.542-21.45H61.3294Zm271.9416 0-43.996 207.075h53.481l43.842-207.075h-53.327Zm298.283 0c-12.896 0-19.729 6.907-24.743 18.975l-78.353 188.1h56.084l10.851-31.35h68.327l6.598 31.35h49.487l-43.172-207.075h-45.079Zm7.294 55.945 16.625 77.705h-44.538l27.913-77.705Z"/></g><defs><clipPath id="a"><path fill="#fff" d="M0 0h780v500H0z"/></clipPath></defs></svg>

<svg width="780" height="500" viewBox="0 0 780 500" fill="none" xmlns="http://www.w3.org/2000/svg">
<g clip-path="url(#clip0_6278_125851)">
<path d="M40 0H740C762.092 0 780 17.909 780 40V460C780 482.092 762.092 500 740 500H40C17.909 500 0 482.092 0 460V40C0 17.909 17.909 0 40 0Z" fill="#1434CB"/>
<path d="M489.823 143.111C442.988 143.111 401.134 167.393 401.134 212.256C401.134 263.706 475.364 267.259 475.364 293.106C475.364 303.989 462.895 313.731 441.6 313.731C411.377 313.731 388.789 300.119 388.789 300.119L379.123 345.391C379.123 345.391 405.145 356.889 439.692 356.889C490.898 356.889 531.19 331.415 531.19 285.784C531.19 231.419 456.652 227.971 456.652 203.981C456.652 195.455 466.887 186.114 488.122 186.114C512.081 186.114 531.628 196.014 531.628 196.014L541.087 152.289C541.087 152.289 519.818 143.111 489.823 143.111ZM61.3294 146.411L60.1953 153.011C60.1953 153.011 79.8988 156.618 97.645 163.814C120.495 172.064 122.122 176.868 125.971 191.786L167.905 353.486H224.118L310.719 146.411H254.635L198.989 287.202L176.282 167.861C174.199 154.203 163.651 146.411 150.74 146.411H61.3294ZM333.271 146.411L289.275 353.486H342.756L386.598 146.411H333.271ZM631.554 146.411C618.658 146.411 611.825 153.318 606.811 165.386L528.458 353.486H584.542L595.393 322.136H663.72L670.318 353.486H719.805L676.633 146.411H631.554ZM638.848 202.356L655.473 280.061H610.935L638.848 202.356Z" fill="white"/>
</g>
<defs>
<clipPath id="clip0_6278_125851">
<rect width="780" height="500" fill="white"/>
</clipPath>
</defs>
</svg>
